X: 56
T: Missa Prolationum / Sanctus
N: Derived from Ock1011d-Missa_Prolationum-Sanctus.krn
C: Johannes Ockeghem
%%abc-version 2.0
%%abcx-abcm2ps-target-version 5.9.1 (29 Sep 2008)
%%abc-creator hum2abc beta
%%abcx-conversion-date 2019/02/17 07:26:15
%%abc-edited-by Will Watson
%%abc-edited-by Chris Gage 08-20-2012, Will Watson
%%abcx-initial-encoding-date 2014/05/13/
%%humdrum-veritas 4176567142
%%humdrum-veritas-data 967359389
%%linebreak <none>
%%barnumbers 0
L: 1/4
M: 3/1
Q: 1/2=120
%%staves [1 2 3 4]
V: 1 clef=treble
V: 2 clef=treble-8
V: 3 clef=treble-8
V: 4 clef=bass
K: C
[V:1] z12 | 
[V:2] c6A2G4 | 
[V:3] z12 | 
[V:4] C,12 | 
[V:1] z12 | 
[V:2] F2A2_B2c4_B2 | 
[V:3] z12 | 
[V:4] D,6C,2E,4 | 
[V:1] z12 | 
[V:2] A2d4c4=B2 | 
[V:3] z12 | 
[V:4] F,4E,2C,2D,4 | 
[V:1] z12 | 
[V:2] c2d2e4c2d2- | 
[V:3] z12 | 
[V:4] C,4z4F,4 | 
[V:1] z12 | 
[V:2] d2c2A2c2_B4 | 
[V:3] z12 | 
[V:4] F,2E,2F,2A,4G,2 | 
[V:1] z12 | 
[V:2] A4c4d4 | 
[V:3] z12 | 
[V:4] A,3F,E,2F,4E,2 | 
[V:1] z12 | 
[V:2] e4c2d3c_BA | 
[V:3] z12 | 
[V:4] C,4F,8 | 
[V:1] z12 | 
[V:2] G4A4_B4 | 
[V:3] z12 | 
[V:4] z2E,2C,2D,4E,2 | 
[V:1] z12 | 
[V:2] A2c4_BAG2c2- | 
[V:3] z12 | 
[V:4] A,,4C,2D,2E,4 | 
[V:1] z12 | 
[V:2] c2d2e3d/c/=B2c2- | 
[V:3] z12 | 
[V:4] F,4E,4G,2A,2- | 
[V:1] z12 | 
[V:2] c2c3=B/A/G2=B2A2 | 
[V:3] z12 | 
[V:4] A,G,/F,/E,2F,2E,3C,D,2 | 
[V:1] z12 | 
[V:2] c4A2A4^G2 | 
[V:3] z12 | 
[V:4] C,2A,,4C,2B,,4 | 
[V:1] A6F2E4 | 
[V:2] A4c8 | 
[V:3] A12 | 
[V:4] A,,12 | 
[V:1] D2F2G2A4G2 | 
[V:2] d6c2e4 | 
[V:3] B6A2c4 | 
[V:4] z4z4A,,4 | 
[V:1] F2_B4A4G2 | 
[V:2] f4g2f2d2e2 | 
[V:3] d4c2A2_B4 | 
[V:4] D,4E,2F,2G,4 | 
[V:1] A2_B2c4A2B2- | 
[V:2] f4e4f4 | 
[V:3] A4z4d4 | 
[V:4] F,2D,2C,4z2_B,,2- | 
[V:1] B2A2F2A2G4 | 
[V:2] f4d2c3_BG2 | 
[V:3] d2c2d2f4e2 | 
[V:4] B,,2F,4F,2C,4 | 
[V:1] F4A4_B4 | 
[V:2] A4z4f4 | 
[V:3] f3dc2d4c2 | 
[V:4] F,8z4 | 
[V:1] c4A2_B3AGF | 
[V:2] f4d4g4- | 
[V:3] A4d8 | 
[V:4] F,6G,3F,E,D, | 
[V:1] E4F4G4 | 
[V:2] g2e2d4z2G2 | 
[V:3] z2c2A2B4c2 | 
[V:4] C,4D,4E,4 | 
[V:1] F2A4GFE2A2- | 
[V:2] A3_Bc2d2e2f2 | 
[V:3] F4A2B2c4 | 
[V:4] z2F,4E,D,C,2F,2- | 
[V:1] A2B2c3B/A/G2A2- | 
[V:2] d3c/_B/A2c2_B2c2 | 
[V:3] d4c4e2f2- | 
[V:4] F,2G,2A,3F,G,2F,2 | 
[V:1] A2A3G/F/E2G2F2 | 
[V:2] F2z2A2G2c2d2- | 
[V:3] fe/d/c2d2c3A_B2 | 
[V:4] z2F,4C,2E,2D,2 | 
[V:1] A4F2F4E2 | 
[V:2] dcd4c2c4 | 
[V:3] A2F4A2G4 | 
[V:4] F,2D,2F,4C,4 | 
[V:1] F12 ||  
[V:2] c12 ||  
[V:3] F12 ||  
[V:4] F,12 ||  
[V:1]  [K:C] [K:clef=treble][M:3/1]c6A2_B2G2 | 
[V:2]  [K:C] [K:clef=treble-8][M:3/1]z12 | 
[V:3]  [K:C] [K:clef=treble-8][M:3/1]z12 | 
[V:4]  [K:C] [K:clef=bass][M:3/1]z12 | 
[V:1] F6G4A2 | 
[V:2] d6_B2c2A2 | 
[V:3] z12 | 
[V:4] z12 | 
[V:1] _B4G2F2A2G2- | 
[V:2] G6A4_B2 | 
[V:3] z12 | 
[V:4] z12 | 
[V:1] G2E2F2G4F2 | 
[V:2] c4A2G2_B2A2- | 
[V:3] z12 | 
[V:4] z12 | 
[V:1] A4G2E2F2G2- | 
[V:2] A2F2G2A4G2 | 
[V:3] z12 | 
[V:4] z12 | 
[V:1] GFEDC4z4 | 
[V:2] _B4A2F2G2A2- | 
[V:3] z12 | 
[V:4] z12 | 
[V:1] E2D2F4D2E2- | 
[V:2] AGFED4z4 | 
[V:3] z12 | 
[V:4] z12 | 
[V:1] EDC2=B,4z4 | 
[V:2] F2E2G4E2F2- | 
[V:3] z12 | 
[V:4] z12 | 
[V:1] C2D2E4D2C2 | 
[V:2] FED2C4z4 | 
[V:3] z12 | 
[V:4] z12 | 
[V:1] F2G2A4G2A2 | 
[V:2] D2E2F4E2D2 | 
[V:3] z12 | 
[V:4] z12 | 
[V:1] _B2A3FG2A4 | 
[V:2] G2A2_B4A2_B2 | 
[V:3] z12 | 
[V:4] z12 | 
[V:1] G4z4G4 | 
[V:2] c2_B3GA2_B4 | 
[V:3] z12 | 
[V:4] z12 | 
[V:1] c4_B4A2A2- | 
[V:2] A4z4A4 | 
[V:3] z12 | 
[V:4] z12 | 
[V:1] A2F2E4z2F2 | 
[V:2] d4c4_B2_B2- | 
[V:3] z12 | 
[V:4] z12 | 
[V:1] G2_B2A2c4B2 | 
[V:2] B2G2F4z2G2 | 
[V:3] z12 | 
[V:4] z12 | 
[V:1] c3_B/A/G2FB2AAG | 
[V:2] A2c2_B2d4c2 | 
[V:3] z12 | 
[V:4] z12 | 
[V:1] _B3GF2E2D4 | 
[V:2] d3c/_B/A2Gc2=B=BA | 
[V:3] z12 | 
[V:4] z12 | 
[V:1] C12 ||  
[V:2] c12 ||  
[V:3] z12 ||  
[V:4] z12 ||  
[V:1]  [K:F] [K:clef=treble][M:3/1]c8c4- | 
[V:2]  [K:F] [K:clef=treble-8][M:3/1]c12 | 
[V:3]  [K:F] [K:clef=treble-8][M:3/1]f12 | 
[V:4]  [K:F] [K:clef=bass][M:3/1]F,12- | 
[V:1] c4A8 | 
[V:2] c12 | 
[V:3] f12 | 
[V:4] F,6F,6- | 
[V:1] c8A4 | 
[V:2] A12 | 
[V:3] c12 | 
[V:4] F,12 | 
[V:1] G4E8 | 
[V:2] c12 | 
[V:3] z6c6 | 
[V:4] C,12- | 
[V:1] E4G3FD4 | 
[V:2] A4G8 | 
[V:3] c8B4 | 
[V:4] C,6z2z4 | 
[V:1] E3FG2A2G4 | 
[V:2] E12 | 
[V:3] c8z4 | 
[V:4] C,12 | 
[V:1] z2G4E2F2D2 | 
[V:2] E4G3FD4 | 
[V:3] c8z2d2 | 
[V:4] C,8B,,4 | 
[V:1] G3AG2c4=B2 | 
[V:2] E3FG2A2G4 | 
[V:3] G2c3Bc2d4 | 
[V:4] C,8z4 | 
[V:1] c3=B/A/G4A4 | 
[V:2] z2G4E2F2D2 | 
[V:3] c4e4d4 | 
[V:4] C,8z2D,2 | 
[V:1] G6FEF4 | 
[V:2] G3AG2c4=B2 | 
[V:3] e2c2e4d4 | 
[V:4] G,,2C,3B,,C,2D,4 | 
[V:1] G2A3GG4F2 | 
[V:2] c3=B/A/G4A4 | 
[V:3] G2c2B2c2d4 | 
[V:4] C,4E,4D,4 | 
[V:1] G8z2F2 | 
[V:2] G6FEF4 | 
[V:3] c4z2G2A4 | 
[V:4] E,2C,2E,4D,4 | 
[V:1] D2E2F2E2D2F2 | 
[V:2] G2A3GG4F2 | 
[V:3] B2c2d2c2z2B2 | 
[V:4] G,,2C,2B,,2C,2D,4 | 
[V:1] EC2c2=BBAc4 | 
[V:2] G8z2F2 | 
[V:3] c2e2d4c4 | 
[V:4] C,4z2G,,2A,,4 | 
[V:1] z2c2F2G2A2B2 | 
[V:2] D2E2F2E2D2F2 | 
[V:3] f2e2d2e2f2d2 | 
[V:4] B,,2C,2D,2C,2z2B,,2 | 
[V:1] A2G2A2F2EE2D | 
[V:2] EC2c2=B=BAc4- | 
[V:3] c4F4G4 | 
[V:4] C,2E,2D,4C,4 | 
[V:1] F12 ||  
[V:2] c12 ||  
[V:3] F12 ||  
[V:4] F,12 ||  
[V:1]  [K:C] [K:clef=treble][M:2/1]_B4A2F2 | 
[V:2]  [K:C] [K:clef=treble-8][M:2/1]z8 | 
[V:3]  [K:C] [K:clef=treble-8][M:2/1]_B4c2d2- | 
[V:4]  [K:C] [K:clef=bass][M:2/1]z8 | 
[V:1] G4F3E/D/ | 
[V:2] z8 | 
[V:3] d2e2f4 | 
[V:4] z8 | 
[V:1] C2_B,2z_E2D/C/ | 
[V:2] z8 | 
[V:3] e2f2g4 | 
[V:4] z8 | 
[V:1] D2_B,2C4 | 
[V:2] z8 | 
[V:3] f2d2c_e2d/c/ | 
[V:4] z8 | 
[V:1] D2C2_B,2F2 | 
[V:2] z8 | 
[V:3] _B2A2_B2d2 | 
[V:4] z8 | 
[V:1] G3FA4- | 
[V:2] z8 | 
[V:3] c3_BAGF2 | 
[V:4] z8 | 
[V:1] A4A4 | 
[V:2] z8 | 
[V:3] z2c2d2f2- | 
[V:4] z8 | 
[V:1] G4F2_B2 | 
[V:2] z8 | 
[V:3] f2e2d4 | 
[V:4] z8 | 
[V:1] A2G4E2 | 
[V:2] z8 | 
[V:3] c4c4 | 
[V:4] z8 | 
[V:1] F2D2C4 | 
[V:2] z8 | 
[V:3] _B4A4 | 
[V:4] z8 | 
[V:1] z2F4D2 | 
[V:2] z8 | 
[V:3] F8 | 
[V:4] z8 | 
[V:1] E3FG2FE | 
[V:2] z8 | 
[V:3] z2c4A2 | 
[V:4] z8 | 
[V:1] D4z2G2- | 
[V:2] z8 | 
[V:3] _B3cd2_B2 | 
[V:4] z8 | 
[V:1] G2F2G4 | 
[V:2] z8 | 
[V:3] A4G2c2- | 
[V:4] z8 | 
[V:1] E2F2G2A2- | 
[V:2] z8 | 
[V:3] c2A2_B2c2 | 
[V:4] z8 | 
[V:1] AFF2_B2A2 | 
[V:2] z8 | 
[V:3] d3_B_B2c2- | 
[V:4] z8 | 
[V:1] G4c2_B2 | 
[V:2] z8 | 
[V:3] c2e4d2 | 
[V:4] z8 | 
[V:1] A2G4E2 | 
[V:2] z8 | 
[V:3] c2_BAG2c2 | 
[V:4] z8 | 
[V:1] D2C2D4 | 
[V:2] z8 | 
[V:3] _B2c3A=B2 | 
[V:4] z8 | 
[V:1] C8 | 
[V:2] z8 | 
[V:3] c8 | 
[V:4] z8 | 
[V:1] z8 | 
[V:2] f4e2c2 | 
[V:3] z8 | 
[V:4] F,4G,2A,2- | 
[V:1] z8 | 
[V:2] d4c3B/A/ | 
[V:3] z8 | 
[V:4] A,2B,2C4 | 
[V:1] z8 | 
[V:2] G2F2z_B2A/G/ | 
[V:3] z8 | 
[V:4] B,2C2D4 | 
[V:1] z8 | 
[V:2] A2F2G4 | 
[V:3] z8 | 
[V:4] C2A,2G,_B,2A,/G,/ | 
[V:1] z8 | 
[V:2] A2G2F2c2 | 
[V:3] z8 | 
[V:4] F,2E,2F,2A,2 | 
[V:1] z8 | 
[V:2] d3ce4- | 
[V:3] z8 | 
[V:4] G,3F,E,D,C,2 | 
[V:1] z8 | 
[V:2] e4e4 | 
[V:3] z8 | 
[V:4] z2G,2A,2C2- | 
[V:1] z8 | 
[V:2] d4c2f2 | 
[V:3] z8 | 
[V:4] C2B,2A,4 | 
[V:1] z8 | 
[V:2] e2d4B2 | 
[V:3] z8 | 
[V:4] G,4G,4 | 
[V:1] z8 | 
[V:2] c2A2G4 | 
[V:3] z8 | 
[V:4] F,4E,4 | 
[V:1] z8 | 
[V:2] z2c4A2 | 
[V:3] z8 | 
[V:4] C,8 | 
[V:1] z8 | 
[V:2] B3cd2cB | 
[V:3] z8 | 
[V:4] z2G,4E,2 | 
[V:1] z8 | 
[V:2] A4z2d2- | 
[V:3] z8 | 
[V:4] F,3G,A,2F,2 | 
[V:1] z8 | 
[V:2] d2c2d4 | 
[V:3] z8 | 
[V:4] E,4D,2G,2- | 
[V:1] z8 | 
[V:2] B2c2d2e2- | 
[V:3] z8 | 
[V:4] G,2E,2F,2G,2 | 
[V:1] z8 | 
[V:2] ecc2f2e2 | 
[V:3] z8 | 
[V:4] A,3F,F,2G,2- | 
[V:1] z8 | 
[V:2] d4g2f2 | 
[V:3] z8 | 
[V:4] G,2B,4A,2 | 
[V:1] z8 | 
[V:2] e2d4B2 | 
[V:3] z8 | 
[V:4] G,2F,E,D,2G,2 | 
[V:1] z8 | 
[V:2] A2G2A4 | 
[V:3] z8 | 
[V:4] F,2G,3E,^F,2 | 
[V:1] z8 | 
[V:2] G8 | 
[V:3] z8 | 
[V:4] G,8 | 
[V:1] G4A4 | 
[V:2] z8 | 
[V:3] c4F4 | 
[V:4] z8 | 
[V:1] G4A2c2- | 
[V:2] z8 | 
[V:3] z2c4A2 | 
[V:4] z8 | 
[V:1] c2=B2c4 | 
[V:2] z8 | 
[V:3] G4C4 | 
[V:4] z8 | 
[V:1] A4A4 | 
[V:2] z8 | 
[V:3] c2d2c2f2- | 
[V:4] z8 | 
[V:1] A4G3F/E/ | 
[V:2] z8 | 
[V:3] f2F2z2E2 | 
[V:4] z8 | 
[V:1] D4C2F2- | 
[V:2] z8 | 
[V:3] F2G2A3D- | 
[V:4] z8 | 
[V:1] F4E2F2- | 
[V:2] z8 | 
[V:3] DC/B,/A,4A2 | 
[V:4] z8 | 
[V:1] F2E2D4 | 
[V:2] z8 | 
[V:3] _B2c4=B2 | 
[V:4] z8 | 
[V:1] C2F2G2A2 | 
[V:2] z8 | 
[V:3] c2A_B2AF2- | 
[V:4] z8 | 
[V:1] _B4A4 | 
[V:2] z8 | 
[V:3] FG3F3_B- | 
[V:4] z8 | 
[V:1] G2A4_B2 | 
[V:2] z8 | 
[V:3] B2A3d3 | 
[V:4] z8 | 
[V:1] [M:2/1]c3A3G2- | 
[V:2] z8 | 
[V:3] c3f3e2 | 
[V:4] z8 | 
[V:1] GF3E3D- | 
[V:2] z8 | 
[V:3] d4c2_B2- | 
[V:4] z8 | 
[V:1] D2C2_B,D2C/B,/ | 
[V:2] z8 | 
[V:3] B2A2G4 | 
[V:4] z8 | 
[V:1] A,2_B,2G,2zC- | 
[V:2] z8 | 
[V:3] F2DE2D/E/FE | 
[V:4] z8 | 
[V:1] CED2CFGA- | 
[V:2] z8 | 
[V:3] C2FGA2_Bc | 
[V:4] z8 | 
[V:1] AFG2C2D2 | 
[V:2] z8 | 
[V:3] d2_Bc2F2G- | 
[V:4] z8 | 
[V:1] _B,A,2B,CDE3/F//G// | 
[V:2] z8 | 
[V:3] GFD2CFGA- | 
[V:4] z8 | 
[V:1] A3/F/GC2F2E | 
[V:2] z8 | 
[V:3] A/_B//c//d3/_B/cF2G2 | 
[V:4] z8 | 
[V:1] F8 |]  
[V:2] z8 |]  
[V:3] F8 |]  
[V:4] z8 |]  



